src/assets/images/icon-instagram.inline.svg

<svg width="22" height="22" viewBox="0 0 22 22" fill="none" xmlns="http://www.w3.org/2000/svg">
<path fill-rule="evenodd" clip-rule="evenodd" d="M11 22C17.0751 22 22 17.0751 22 11C22 4.92487 17.0751 0 11 0C4.92493 0 0 4.92487 0 11C0 17.0751 4.92493 22 11 22ZM7.92505 10.9973C7.92505 9.25824 9.29907 7.85553 11.0027 7.85553C12.7063 7.85553 14.0803 9.25824 14.0803 10.9973C14.0803 12.7364 12.7063 14.1391 11.0027 14.1391C9.29907 14.1391 7.92505 12.7364 7.92505 10.9973ZM9.00183 10.9973C9.00183 12.1238 9.90173 13.0399 11.0027 13.0399C12.1036 13.0399 13.0035 12.1238 13.0035 10.9973C13.0035 9.87073 12.1062 8.95471 11.0027 8.95471C9.89917 8.95471 9.00183 9.87073 9.00183 10.9973ZM14.2063 8.45978C14.6027 8.45978 14.9241 8.1344 14.9241 7.72699C14.9241 7.32233 14.6027 6.9942 14.2063 6.9942C13.8098 6.9942 13.4884 7.32233 13.4884 7.72699C13.4884 8.13165 13.8071 8.45978 14.2063 8.45978ZM15.9929 5.90314C16.6974 6.61957 16.917 7.48907 16.9625 8.47076C17.0188 9.48248 17.0188 12.5121 16.9625 13.5239C16.9143 14.5055 16.6947 15.3751 15.9929 16.0914C15.2911 16.8106 14.4393 17.0348 13.4777 17.0813C12.4866 17.1387 9.51611 17.1387 8.52502 17.0813C7.56335 17.032 6.71423 16.8079 6.00989 16.0914C5.30542 15.3751 5.08569 14.5055 5.04016 13.5239C4.98389 12.5121 4.98389 9.47974 5.04016 8.46802C5.08838 7.48639 5.30542 6.61682 6.00989 5.90045C6.71423 5.18402 7.56604 4.95978 8.52502 4.91333C9.51611 4.8559 12.4866 4.8559 13.4777 4.91333C14.4393 4.96252 15.2911 5.18677 15.9929 5.90314ZM14.5411 15.7742C15.0687 15.5582 15.4733 15.1453 15.6821 14.6094C15.9509 13.9198 15.9359 12.4114 15.9263 11.4337C15.9247 11.2716 15.9232 11.1241 15.9232 10.9973C15.9232 10.8705 15.9247 10.723 15.9263 10.561C15.9359 9.58374 15.9509 8.07709 15.6821 7.38519C15.4706 6.8465 15.066 6.43365 14.5411 6.22034C13.8635 5.94739 12.3788 5.96191 11.4214 5.97131C11.2661 5.97284 11.1246 5.97424 11.0027 5.97424C10.8784 5.97424 10.7339 5.97278 10.5752 5.97113C9.61804 5.96124 8.14209 5.94598 7.46423 6.22034C6.93665 6.43634 6.5321 6.84924 6.32324 7.38519C6.05591 8.07684 6.07007 9.59229 6.07935 10.5698C6.08081 10.7284 6.08215 10.8729 6.08215 10.9973C6.08215 11.1241 6.08069 11.2716 6.0791 11.4337C6.06946 12.4109 6.05444 13.9175 6.32324 14.6094C6.53479 15.1481 6.93933 15.561 7.46423 15.7742C8.14185 16.0472 9.62659 16.0327 10.584 16.0233C10.7393 16.0217 10.8807 16.0203 11.0027 16.0203C11.127 16.0203 11.2715 16.0218 11.4303 16.0234C12.3876 16.0334 13.8633 16.0486 14.5411 15.7742Z" fill="black"/>
</svg>

<svg id="a4835f54-1373-4162-b3ae-5685668ece7f" data-name="Layer 1" xmlns="http://www.w3.org/2000/svg" viewBox="0 0 22 22"><path d="M11,9A2,2,0,1,0,13,11,2,2,0,0,0,11,9Z"/><path d="M11,0A11,11,0,1,0,22,11,11,11,0,0,0,11,0Zm6,13.52a3.69,3.69,0,0,1-1,2.57,3.51,3.51,0,0,1-2.51,1c-1,.06-4,.06-5,0a3.52,3.52,0,0,1-2.52-1,3.69,3.69,0,0,1-1-2.57c-.06-1-.06-4,0-5A3.72,3.72,0,0,1,6,5.9a3.53,3.53,0,0,1,2.52-1c1,0,4,0,5,0A3.55,3.55,0,0,1,16,5.9a3.63,3.63,0,0,1,1,2.57C17,9.48,17,12.51,17,13.52Z"/><path d="M15.68,7.39a2,2,0,0,0-1.14-1.17A10.85,10.85,0,0,0,11.42,6h-.84a10.85,10.85,0,0,0-3.12.25A2.08,2.08,0,0,0,6.32,7.39a11.66,11.66,0,0,0-.24,3.18v.86a11.27,11.27,0,0,0,.24,3.18,2,2,0,0,0,1.14,1.16,10.53,10.53,0,0,0,3.12.25h.85a10.44,10.44,0,0,0,3.11-.25,2,2,0,0,0,1.14-1.16,11.25,11.25,0,0,0,.25-3.18c0-.16,0-.31,0-.43s0-.28,0-.44A11.18,11.18,0,0,0,15.68,7.39ZM11,14.14A3.14,3.14,0,1,1,14.08,11,3.1,3.1,0,0,1,11,14.14Zm3.21-5.68a.74.74,0,1,1,.71-.73A.73.73,0,0,1,14.21,8.46Z"/></svg>
